svgs/thin/watch-fitness.svg

<svg xmlns="http://www.w3.org/2000/svg" viewBox="0 0 384 512"><!--! Font Awesome Pro 6.4.0 by @fontawesome - https://fontawesome.com License - https://fontawesome.com/license (Commercial License) Copyright 2023 Fonticons, Inc. --><path d="M80 40V64H304l0-24c0-13.3-10.7-24-24-24H104C90.7 16 80 26.7 80 40zM64 65.6V40C64 17.9 81.9 0 104 0H280c22.1 0 40 17.9 40 40V65.6c36.5 7.4 64 39.7 64 78.4V368c0 38.7-27.5 71-64 78.4V472c0 22.1-17.9 40-40 40l-176 0c-22.1 0-40-17.9-40-40l0-25.6C27.5 439 0 406.7 0 368V144c0-38.7 27.5-71 64-78.4zM80 472c0 13.3 10.7 24 24 24l176 0c13.3 0 24-10.7 24-24V448H80l0 24zm224-40c35.3 0 64-28.7 64-64V144c0-35.3-28.7-64-64-64H80c-35.3 0-64 28.7-64 64V368c0 35.3 28.6 64 63.9 64l.1 0H304zM96 217.9v.6c0 10.6 4 20.9 11.2 28.8l78.9 86.1c1.5 1.7 3.7 2.6 5.9 2.6s4.4-.9 5.9-2.6l78.9-86.1c7.2-7.8 11.2-18.1 11.2-28.8v-.6c0-23.2-18.8-41.9-41.9-41.9c-11.1 0-21.8 4.4-29.7 12.3L197.7 207c-1.5 1.5-3.5 2.3-5.7 2.3s-4.2-.8-5.7-2.3l-18.7-18.7c-7.9-7.9-18.5-12.3-29.7-12.3C114.8 176 96 194.8 96 217.9zM137.9 160c15.4 0 30.1 6.1 41 17L192 190.1 205.1 177c10.9-10.9 25.6-17 41-17c32 0 57.9 25.9 57.9 57.9v.6c0 14.7-5.5 28.8-15.4 39.6l-78.9 86.1c-4.5 5-11 7.8-17.7 7.8s-13.1-2.8-17.7-7.8L95.4 258.1C85.5 247.3 80 233.2 80 218.6v-.6c0-32 25.9-57.9 57.9-57.9z"/></svg>

<svg xmlns="http://www.w3.org/2000/svg" viewBox="0 0 384 512"><!--! Font Awesome Pro 6.3.0 by @fontawesome - https://fontawesome.com License - https://fontawesome.com/license (Commercial License) Copyright 2023 Fonticons, Inc. --><path d="M288.7 261.9L208.7 339C199.4 348 184.6 348 175.3 339L95.3 261.9C71.9 239.3 71.9 201.8 95.3 179.3C117.5 157.9 152.7 157.9 174.9 179.3L192 195.7L209.1 179.3C231.3 157.9 266.5 157.9 288.7 179.3C312.1 201.8 312.1 239.3 288.7 261.9zM192 217.1L163.8 190.8C147.8 175.3 122.4 175.3 106.4 190.8C89.53 207.1 89.53 234.1 106.4 250.3L186.4 327.5C189.5 330.5 194.5 330.5 197.6 327.5L277.6 250.3C294.5 234.1 294.5 207.1 277.6 190.8C261.6 175.3 236.2 175.3 220.2 190.8L192 217.1zM64 65.6V40C64 17.91 81.91 0 104 0H280C302.1 0 320 17.91 320 40V65.6C356.5 73.01 384 105.3 384 144V368C384 406.7 356.5 438.1 320 446.4V472C320 494.1 302.1 512 280 512H104C81.91 512 64 494.1 64 472V446.4C27.48 438.1 0 406.7 0 368V144C0 105.3 27.48 73.01 64 65.6zM80 64H304V40C304 26.75 293.3 16 280 16H104C90.75 16 80 26.75 80 40V64zM104 496H280C293.3 496 304 485.3 304 472V448H80V472C80 485.3 90.75 496 104 496zM368 368V144C368 108.7 339.3 80 304 80H80C44.65 80 16 108.7 16 144V368C16 403.3 44.62 431.1 79.94 432H304C339.3 432 368 403.3 368 368z"/></svg>
